src/assets/icons/sax/IconEdit.svg

<svg width="20" height="20" viewBox="0 0 24 24" fill="none" xmlns="http://www.w3.org/2000/svg">
<path d="M13.1947 4.30325L6.53042 15.8475M13.1947 4.30325C14.3449 2.31085 15.7473 0.952424 17.72 2.09167C19.6928 3.23092 19.2176 5.1248 18.0674 7.1172M13.1947 4.30325C13.9766 6.43468 15.8211 7.49988 18.0674 7.1172M6.53042 15.8475C6.2767 16.2869 6.04338 17.0215 6.01866 17.4858L5.83644 20.7404C5.76653 21.9209 6.52533 22.3493 7.51328 21.7088L10.2404 19.9238C10.6209 19.6747 11.1402 19.1054 11.4031 18.6614M6.53042 15.8475C7.31225 17.9789 9.15678 19.0441 11.4031 18.6614M11.4031 18.6614L18.0674 7.1172" stroke="currentColor" stroke-width="1.5"/>
</svg>

<svg xmlns="http://www.w3.org/2000/svg" width="20" height="20" fill="none" viewBox="0 0 24 24">
  <path stroke="currentcolor" stroke-width="1.5" d="M13.2 4.3 6.52 15.85M13.19 4.3c1.15-1.99 2.56-3.35 4.53-2.2 1.97 1.13 1.5 3.02.35 5.02M13.19 4.3a4.17 4.17 0 0 0 4.88 2.82M6.53 15.85a4 4 0 0 0-.51 1.64l-.18 3.25c-.07 1.18.69 1.6 1.67.97l2.73-1.79c.38-.25.9-.81 1.16-1.26m-4.87-2.81a4.17 4.17 0 0 0 4.87 2.81m0 0 6.67-11.54"/>
</svg>
